public/imgs/Enterprises/InfinixGaming/logo-gaming.svg

<svg width="222" height="42" viewBox="0 0 222 42" fill="none" xmlns="http://www.w3.org/2000/svg">
<g clip-path="url(#clip0_443_8966)">
<path d="M34.0964 9.10156C30.4424 9.10156 27.1469 10.6792 24.8407 13.1947L28.9685 19.4836C29.8571 17.5183 31.821 16.1494 34.0964 16.1494C37.2053 16.1494 39.7343 18.7029 39.7343 21.8419C39.7343 24.9809 37.2053 27.5344 34.0964 27.5344C31.9942 27.5344 30.2558 26.3078 29.19 24.6407C23.7601 16.1494 24.5789 17.3435 22.8217 14.5731C22.3949 13.8995 21.8821 13.2015 21.7532 13.0646C19.4537 10.625 16.2092 9.10156 12.6183 9.10156C5.6608 9.10156 0 14.8171 0 21.8419C0 28.8668 5.6608 34.5823 12.6183 34.5823C16.2911 34.5823 19.6014 32.9897 21.9089 30.4525L17.8093 24.0634C16.9502 26.1018 14.9474 27.5344 12.6183 27.5344C9.50939 27.5344 6.98036 24.9809 6.98036 21.8419C6.98036 18.7029 9.50939 16.1494 12.6183 16.1494C14.6923 16.1494 16.4508 17.3218 17.4871 18.9767C21.7465 25.7725 22.1425 26.2997 23.9856 29.1893C24.4608 29.9334 25.2286 30.9025 25.4796 31.1397C27.7362 33.273 30.7673 34.5823 34.0964 34.5823C41.0539 34.5823 46.7147 28.8668 46.7147 21.8419C46.7147 14.8171 41.0539 9.10156 34.0964 9.10156Z" fill="#3649F1"/>
</g>
<path d="M59.1271 35H63.6651V10.1411H59.1271V35ZM68.0795 35H72.4507V24.3557C72.4507 23.1767 72.7843 22.2313 73.4517 21.5195C74.1413 20.8076 75.0311 20.4517 76.1211 20.4517C77.2111 20.4517 78.0898 20.8076 78.7572 21.5195C79.4468 22.2091 79.7915 23.1545 79.7915 24.3557V35H84.1627V23.3213C84.1627 21.9644 83.8735 20.7743 83.2951 19.751C82.7168 18.7055 81.9048 17.8935 80.8593 17.3152C79.836 16.7368 78.657 16.4476 77.3223 16.4476C76.1878 16.4476 75.1646 16.67 74.2525 17.1149C73.3627 17.5599 72.6731 18.2161 72.1837 19.0836V16.848H68.0795V35ZM89.9611 35H94.3323V20.752H100.672V35H105.043V16.848H94.3323V16.2474C94.3323 15.3353 94.5992 14.668 95.1331 14.2453C95.6892 13.8004 96.4456 13.578 97.4021 13.578C97.758 13.578 98.1362 13.6113 98.5366 13.6781V9.90754C98.025 9.79632 97.4577 9.7407 96.8348 9.7407C94.7438 9.7407 93.0754 10.308 91.8297 11.4425C90.584 12.577 89.9611 14.1786 89.9611 16.2474V16.848H86.7578V20.752H89.9611V35ZM108.681 35H113.052V24.3557C113.052 23.1767 113.386 22.2313 114.053 21.5195C114.743 20.8076 115.633 20.4517 116.723 20.4517C117.813 20.4517 118.691 20.8076 119.359 21.5195C120.048 22.2091 120.393 23.1545 120.393 24.3557V35H124.764V23.3213C124.764 21.9644 124.475 20.7743 123.897 19.751C123.318 18.7055 122.506 17.8935 121.461 17.3152C120.438 16.7368 119.259 16.4476 117.924 16.4476C116.789 16.4476 115.766 16.67 114.854 17.1149C113.964 17.5599 113.275 18.2161 112.785 19.0836V16.848H108.681V35ZM128.461 14.8126H132.832V10.1411H128.461V14.8126ZM128.461 35H132.832V16.848H128.461V35ZM135.233 35H140.371L144.175 29.3609L147.946 35H153.051L146.744 25.8906L153.084 16.848H147.979L144.175 22.4871L140.338 16.848H135.199L141.572 25.8906L135.233 35Z" fill="black"/>
<path d="M175.962 18.8194C176.52 18.8194 177.05 18.7224 177.552 18.5282C178.053 18.3341 178.494 18.055 178.874 17.691C179.255 17.327 179.554 16.8942 179.772 16.3927C179.991 15.8831 180.1 15.3128 180.1 14.6818V13.881H175.95V14.9124H178.899V14.9609C178.899 15.5029 178.765 15.9802 178.498 16.3927C178.239 16.8052 177.888 17.1288 177.443 17.3634C177.006 17.598 176.512 17.7153 175.962 17.7153C175.331 17.7153 174.769 17.5656 174.276 17.2663C173.79 16.967 173.406 16.5504 173.123 16.0166C172.848 15.4827 172.711 14.8639 172.711 14.1601C172.711 13.4483 172.848 12.8254 173.123 12.2915C173.398 11.7576 173.778 11.341 174.264 11.0417C174.757 10.7424 175.319 10.5928 175.95 10.5928C176.581 10.5928 177.123 10.7465 177.576 11.0539C178.029 11.3613 178.357 11.7779 178.559 12.3036L179.627 11.7819C179.481 11.3855 179.234 11.0134 178.887 10.6656C178.547 10.3178 178.126 10.0346 177.625 9.81624C177.131 9.59783 176.573 9.48863 175.95 9.48863C175.311 9.48863 174.721 9.60592 174.179 9.84051C173.645 10.067 173.176 10.3906 172.771 10.8112C172.375 11.2318 172.067 11.7253 171.849 12.2915C171.631 12.8577 171.521 13.4806 171.521 14.1601C171.521 14.8315 171.631 15.4544 171.849 16.0287C172.076 16.5949 172.387 17.0884 172.783 17.509C173.18 17.9215 173.649 18.2451 174.191 18.4797C174.733 18.7062 175.323 18.8194 175.962 18.8194ZM180.797 18.6738H182.071L182.811 16.5504H186.67L187.41 18.6738H188.684L185.444 9.63423H184.037L180.797 18.6738ZM183.187 15.4584L184.74 10.9811L186.294 15.4584H183.187ZM189.823 18.6738H191.012V11.8062L193.961 16.0044H194.058L196.994 11.8668V18.6738H198.195V9.63423H197.103L194.021 14.0509L190.915 9.63423H189.823V18.6738ZM200.203 18.6738H201.392V9.63423H200.203V18.6738ZM203.402 18.6738H204.591V11.9032L209.348 18.6738H210.343V9.63423H209.142V16.3078L204.397 9.63423H203.402V18.6738ZM216.534 18.8194C217.092 18.8194 217.622 18.7224 218.124 18.5282C218.625 18.3341 219.066 18.055 219.446 17.691C219.827 17.327 220.126 16.8942 220.344 16.3927C220.563 15.8831 220.672 15.3128 220.672 14.6818V13.881H216.522V14.9124H219.471V14.9609C219.471 15.5029 219.337 15.9802 219.07 16.3927C218.811 16.8052 218.46 17.1288 218.015 17.3634C217.578 17.598 217.084 17.7153 216.534 17.7153C215.903 17.7153 215.341 17.5656 214.848 17.2663C214.362 16.967 213.978 16.5504 213.695 16.0166C213.42 15.4827 213.283 14.8639 213.283 14.1601C213.283 13.4483 213.42 12.8254 213.695 12.2915C213.97 11.7576 214.35 11.341 214.836 11.0417C215.329 10.7424 215.891 10.5928 216.522 10.5928C217.153 10.5928 217.695 10.7465 218.148 11.0539C218.601 11.3613 218.929 11.7779 219.131 12.3036L220.199 11.7819C220.053 11.3855 219.806 11.0134 219.459 10.6656C219.119 10.3178 218.698 10.0346 218.197 9.81624C217.703 9.59783 217.145 9.48863 216.522 9.48863C215.883 9.48863 215.293 9.60592 214.751 9.84051C214.217 10.067 213.748 10.3906 213.343 10.8112C212.947 11.2318 212.639 11.7253 212.421 12.2915C212.203 12.8577 212.093 13.4806 212.093 14.1601C212.093 14.8315 212.203 15.4544 212.421 16.0287C212.648 16.5949 212.959 17.0884 213.355 17.509C213.752 17.9215 214.221 18.2451 214.763 18.4797C215.305 18.7062 215.895 18.8194 216.534 18.8194Z" fill="black"/>
<path d="M162.592 9.10156L162.592 34.5823" stroke="black" stroke-width="0.485347"/>
<defs>
<clipPath id="clip0_443_8966">
<rect width="46.7147" height="25.4807" fill="white" transform="translate(0 9.10156)"/>
</clipPath>
</defs>
</svg>

<svg xmlns="http://www.w3.org/2000/svg" width="222" height="42" fill="none"><g clip-path="url(#a)"><path fill="#3649F1" d="M34.096 9.102c-3.654 0-6.95 1.577-9.255 4.093l4.127 6.289c.89-1.966 2.853-3.335 5.128-3.335 3.11 0 5.638 2.554 5.638 5.693s-2.529 5.692-5.638 5.692c-2.102 0-3.84-1.226-4.906-2.893-5.43-8.492-4.611-7.297-6.368-10.068-.427-.674-.94-1.372-1.069-1.508-2.3-2.44-5.544-3.963-9.135-3.963C5.661 9.102 0 14.817 0 21.842s5.66 12.74 12.618 12.74c3.673 0 6.983-1.592 9.29-4.13l-4.099-6.389c-.859 2.039-2.862 3.471-5.19 3.471-3.11 0-5.639-2.553-5.639-5.692 0-3.14 2.53-5.693 5.638-5.693 2.074 0 3.833 1.173 4.87 2.828 4.259 6.796 4.654 7.323 6.498 10.212.475.744 1.243 1.713 1.494 1.95a12.507 12.507 0 0 0 8.616 3.443c6.958 0 12.619-5.715 12.619-12.74s-5.661-12.74-12.619-12.74Z"/></g><path fill="#000" d="M59.127 35h4.538V10.141h-4.538V35Zm8.952 0h4.372V24.356c0-1.18.333-2.125 1-2.837.69-.711 1.58-1.067 2.67-1.067 1.09 0 1.969.356 2.636 1.067.69.69 1.034 1.636 1.034 2.837V35h4.372V23.321c0-1.357-.29-2.547-.868-3.57a6.11 6.11 0 0 0-2.436-2.436c-1.023-.578-2.202-.867-3.537-.867-1.134 0-2.157.222-3.07.667a4.78 4.78 0 0 0-2.068 1.969v-2.236h-4.105V35Zm21.882 0h4.371V20.752h6.34V35h4.371V16.848h-10.71v-.6c0-.913.266-1.58.8-2.003.556-.445 1.313-.667 2.27-.667.355 0 .733.033 1.134.1v-3.77a8.026 8.026 0 0 0-1.702-.167c-2.091 0-3.76.567-5.005 1.702-1.246 1.134-1.869 2.736-1.869 4.804v.601h-3.203v3.904h3.203V35Zm18.72 0h4.371V24.356c0-1.18.334-2.125 1.001-2.837.69-.711 1.58-1.067 2.67-1.067 1.09 0 1.968.356 2.636 1.067.689.69 1.034 1.636 1.034 2.837V35h4.371V23.321c0-1.357-.289-2.547-.867-3.57a6.118 6.118 0 0 0-2.436-2.436c-1.023-.578-2.202-.867-3.537-.867-1.135 0-2.158.222-3.07.667a4.782 4.782 0 0 0-2.069 1.969v-2.236h-4.104V35Zm19.78-20.187h4.371V10.14h-4.371v4.672Zm0 20.187h4.371V16.848h-4.371V35Zm6.772 0h5.138l3.804-5.64 3.771 5.64h5.105l-6.307-9.11 6.34-9.042h-5.105l-3.804 5.64-3.837-5.64h-5.139l6.373 9.043L135.233 35ZM175.962 18.82c.558 0 1.088-.098 1.59-.292a3.958 3.958 0 0 0 2.22-2.135c.219-.51.328-1.08.328-1.711v-.801h-4.15v1.031h2.949v.049c0 .542-.134 1.02-.401 1.432-.259.412-.61.736-1.055.97a3.082 3.082 0 0 1-1.481.352c-.631 0-1.193-.15-1.686-.449-.486-.299-.87-.716-1.153-1.25-.275-.533-.412-1.152-.412-1.856 0-.712.137-1.335.412-1.869.275-.533.655-.95 1.141-1.25.493-.299 1.055-.448 1.686-.448s1.173.153 1.626.46c.453.308.781.725.983 1.25l1.068-.521a3.108 3.108 0 0 0-.74-1.116 3.943 3.943 0 0 0-1.262-.85c-.494-.218-1.052-.327-1.675-.327a4.41 4.41 0 0 0-1.771.352 4.227 4.227 0 0 0-1.408.97c-.396.42-.704.914-.922 1.48a5.16 5.16 0 0 0-.328 1.87c0 .67.11 1.293.328 1.868a4.67 4.67 0 0 0 .934 1.48c.397.413.866.736 1.408.97.542.227 1.132.34 1.771.34Zm4.835-.146h1.274l.74-2.124h3.859l.74 2.124h1.274l-3.24-9.04h-1.407l-3.24 9.04Zm2.39-3.216 1.553-4.477 1.554 4.477h-3.107Zm6.636 3.216h1.189v-6.868l2.949 4.198h.097l2.936-4.137v6.807h1.201v-9.04h-1.092l-3.082 4.417-3.106-4.417h-1.092v9.04Zm10.38 0h1.189v-9.04h-1.189v9.04Zm3.199 0h1.189v-6.77l4.757 6.77h.995v-9.04h-1.201v6.674l-4.745-6.674h-.995v9.04Zm13.132.145c.558 0 1.088-.097 1.59-.29a3.958 3.958 0 0 0 2.22-2.136c.219-.51.328-1.08.328-1.711v-.801h-4.15v1.031h2.949v.049c0 .542-.134 1.02-.401 1.432-.259.412-.61.736-1.055.97a3.082 3.082 0 0 1-1.481.352c-.631 0-1.193-.15-1.686-.449-.486-.299-.87-.716-1.153-1.25-.275-.533-.412-1.152-.412-1.856 0-.712.137-1.335.412-1.869.275-.533.655-.95 1.141-1.25.493-.299 1.055-.448 1.686-.448s1.173.153 1.626.46c.453.308.781.725.983 1.25l1.068-.521a3.108 3.108 0 0 0-.74-1.116 3.943 3.943 0 0 0-1.262-.85c-.494-.218-1.052-.327-1.675-.327a4.41 4.41 0 0 0-1.771.352 4.227 4.227 0 0 0-1.408.97c-.396.42-.704.914-.922 1.48a5.16 5.16 0 0 0-.328 1.87c0 .67.11 1.293.328 1.868a4.67 4.67 0 0 0 .934 1.48c.397.413.866.736 1.408.97.542.227 1.132.34 1.771.34Z"/><path stroke="#000" stroke-width=".485" d="M162.592 9.102v25.48"/><defs><clipPath id="a"><path fill="#fff" d="M0 9.102h46.715v25.48H0z"/></clipPath></defs></svg>
